X:1
T:Save, Save One
T:Save, Save One
T:Stephen Van Rensselaer Ford
T:Charlote M. Tucker, 1886
T:Public Domain Courtesy of the Cyber Hymnal™
C:Stephen Van Rensselaer Ford
Z:Public Domain
Z:Courtesy of the Cyber Hymnal™
%%score ( 1 2 ) ( 3 4 )
L:1/8
Q:1/4=102
M:4/4
K:Ab
V:1 treble 
V:2 treble 
V:3 bass 
V:4 bass 
V:1
 [CE]3 [CE] [CE]>[CE] [DF]>[CE] | (A2 B2) [Ec]4 | [EB]4 (A2 B2) | [Ec]6 z2 | %4
w: 1.~Souls are per- ish- ing be-|fore * thee;|Save, save *|one!|
w: 2.~Who the worth of souls can|mea- * sure?|Save, save *|one!|
 [CE]3 [CE] [CE]>[CE] [DF]>[CE] | (A2 B2) [Ec]4 | [FB]4 ([EA]2 [DG]2) | [CA]6 z2 | %8
w: It may be thy crown of|glo- * ry;|Save, save *|one!|
w: Who can count the price- less|trea- * sure?|Save, save *|one!|
 [EB]3 [EB] [EB]>[EB] [EB]>[Ec] | [Ed]4 [EB]4 | [Ec]3 [Ec] [Ec]>[Ec] [A=d]>[Ad] | [Ge]4 [Ed]4 | %12
w: From the waves that o’er thee|tow- er;|From the rag- ing li- on’s|pow- er,|
w: Like the stars, shall shine for-|ev- er|Those who faith- ful- ly en-|dea- vor|
 [Ec]3 [Ec] [Ec]>[EA] [FB]>[Fc] | [Fd]4 (c2 B2) | (A2 G2) ([Ac]3 [EB]) | [EA]8 |] %16
w: From de- struc- tion’s fier- y|show- er, *|Save, * save *|one!|
w: Dy- ing sin- ners to de-|liv- er; *|Save, * save *|one!|
V:2
 x8 | E4 x4 | x4 E4 | x8 | x8 | E4 x4 | x8 | x8 | x8 | x8 | x8 | x8 | x8 | x4 F4 | E4 x4 | x8 |] %16
V:3
 [A,,A,]3 [A,,A,] [A,,A,]>[A,,A,] [A,,A,]>[A,,A,] | ([C,A,]2 [B,,G,]2) [A,,A,]4 | %2
 [E,G,]4 (F,2 G,2) | [A,,A,]6 z2 | [A,,A,]3 [A,,A,] [A,,A,]>[A,,A,] [A,,A,]>[A,,A,] | %5
 ([C,A,]2 [E,G,]2) A,4 | [D,D]4 (C2 B,2) | [A,,A,]6 z2 | %8
 [E,G,]3 [E,G,] [E,G,]>[E,G,] [E,G,]>[E,G,] | [E,B,]4 [E,G,]4 | A,3 A, A,>A, [F,B,]>[F,B,] | %11
 [E,B,]4 [G,B,]4 | A,3 _A, [A,,_A,]>[A,,C] [D,B,]>[C,=A,] | [B,,B,]4 ([C,=A,]2 [D,B,]2) | %14
 (C2 B,2) (E3 D) | [A,,C]8 |] %16
V:4
 x8 | x8 | x4 E,4 | x8 | x8 | x4 A,4 | x4 E,4 | x8 | x8 | x8 | A,3 A, A,>A, x2 | x8 | =A,3 =A, x4 | %13
 x8 | E,4 E,4 | x8 |] %16

